X: 081994
T: How Are You Sandy 
N: 006
C: BB
N: Third tune of "Sandy's Jig Set"
L: 1/8
M: 6/8
R: jig
Q: 1/8=320
K: D
A |"D"dcd "G"Bcd | "D"ABA FED | "Bm"B,CD "A"ECA, | "G"B,CD "A"E2A |
"D"dcd "Em"efe | "D"dcd AFD | "G"GBA "D"FED | "A"ECE "D"D2 :|
A | "D"dDD "G"Bcd | "Em"ede "D"fga | "G"bgg "D"aff | "A"egf ecA |
"D"dDD "G"Bcd | "Em"ede "D"fga | "G"gdB "Bm"Bcd | "A"edc "D"d2 :|
